X: 33703
T: Rannafast, The
R: jig
M: 6/8
K: Dmixolydian
|:c|ded cBc|def g2B|cec Bdf|afd cBc|
ded cBc|def g2B|cec Bdf|afd .d2:|
|:^c|daf ded|fed A2B|cge ~c3|ece AB^c|
daf ded|fed a2B|cec Bdf|afd .d2:|
K:Dmaj
|:A|dcd faf|gbg faf|ege dfd|cec ABc|
dcd faf|gbg faf|ecA gec|ded .d2:|

